X: 212
T:Gan Ainm
M:C|
L:1/8
R:hornpipe
B:Grier Manuscript
D:Cumar
Z:Devin McCabe
K:Eb
EFGA AGe2|GB-Bc BGED|DCFG AGFD|B,DFG EDCD|
!EFGA AGe2|GBBc BGED|DCFG AGFD|1B,DFG DEED:|2B,DFG EFGB|
!:(de2)d deed|cddc A2GA|F3f- fgfe|dBBf- fgfd|
!edcd (de2)d|cddc A3c|B3G- GAGF|1DEED EFGB:|2DEED EB,CD||
